!!!ONB: MCCC : ILB0176_02 : Extracted Monophonic Melody
!!!COM: Beethoven, Ludwig van
!!!OPR: Piano Sonata No.15
!!!OMV: 2
!!!SCT: Op.28
!!!ODT: 1801///
**kern
*thru
*staff1
*Ipiano
*>A
*clefG2
*k[b-]
*d:
*M2/4
*MM60
=1
4d
4a
=2
8g
16.f
32e
8d
8dd
=3
8dd
8dd
8dd
8dd
=4
[4dd
8dd]
8r
=5
4f
4cc
=6
8b-
16.a
32g#
8a
8b
=7
4cc
4g#
=8
*>A1
8a
8B-
8A
8c#
=9
*>A
*M2/4
4d
4a
=10
8g
16.f
32e
8d
8dd
=11
8dd
8dd
8dd
8dd
=12
[4dd
8dd]
8r
=13
4f
4cc
=14
8b-
16.a
32g#
8a
8b
=15
4cc
4g#
=16
*>A2
8a
8B-
8A
8G#
=17
*>B
4ee
8..gg
32ff
=18
8ff
4ee
16.ff
32dd
=19
[4cc#
16cc#]
16ee
16.gg
32ff
=20
8ff
4ee
16.ff
32dd
=21
8cc#
4ee
16.ff
32dd
=22
16.cc#
32ee
16.ff
32dd
16.cc#
32ee
16.ff
32dd
=23
4cc#
4ee
=24
4.gg
8cc#
=25
4dd
4aa
=26
8gg
16.ff
32ee
8dd
8gg
=27
8ff
16.ee
32dd
8cc
8aa
=28
8gg
16.ff
32ee
8dd
16.ddd
32ccc
=29
16ccc
16bb-
16aa
16gg#
16gg#
8aa
16c#
=30
*>B1
4e
8d
8r
=31
*>B
4ee
8..gg
32ff
=32
8ff
4ee
16.ff
32dd
=33
[4cc#
16cc#]
16ee
16.gg
32ff
=34
8ff
4ee
16.ff
32dd
=35
8cc#
4ee
16.ff
32dd
=36
16.cc#
32ee
16.ff
32dd
16.cc#
32ee
16.ff
32dd
=37
4cc#
4ee
=38
4.gg
8cc#
=39
4dd
4aa
=40
8gg
16.ff
32ee
8dd
8gg
=41
8ff
16.ee
32dd
8cc
8aa
=42
8gg
16.ff
32ee
8dd
16.ddd
32ccc
=43
16ccc
16bb-
16aa
16gg#
16gg#
8aa
16c#
=44
*>B2
4e
8d
16r
16A
=45
*>C
*k[f#c#]
*D:
16.f#
32f#
16f#
32r
32gg#
24aa
24ff#
24dd
24a
24g
24f#
=46
16.e
32e
16e
32r
32aa#
24bb
24gg
24ee
24b
24g
24e
=47
16.c#
32c#
16c#
32r
32ff#
24gg
24ee
24cc#
*Xtuplet
24g
24e
24c#
=48
24d
24A
24f#
24e
24A
24g
24f#
24dd
24cc#
24b
24a
24g
=49
16.f#
32f#
16f#
32r
32gg#
24aa
24ff#
24dd
24a
24g
24f#
=50
16.e
32e
16e
32r
32ccc#
24ddd
24bb
24gg#
24ee
24dd
24b
=51
24cc#
24aa
24gg#
24aa
24ee
24cc#
24b
24ee
24dd#
24ee
24dd
24b
=52
*>C1
24a
24e
24cc#
24a
24e
24cc#
24a
24ee
24cc#
24a
24b
24g
=53
*>C
16.f#
32f#
16f#
32r
32gg#
24aa
24ff#
24dd
24a
24g
24f#
=54
16.e
32e
16e
32r
32aa#
24bb
24gg
24ee
24b
24g
24e
=55
16.c#
32c#
16c#
32r
32ff#
24gg
24ee
24cc#
*Xtuplet
24g
24e
24c#
=56
24d
24A
24f#
24e
24A
24g
24f#
24dd
24cc#
24b
24a
24g
=57
16.f#
32f#
16f#
32r
32gg#
24aa
24ff#
24dd
24a
24g
24f#
=58
16.e
32e
16e
32r
32ccc#
24ddd
24bb
24gg#
24ee
24dd
24b
=59
24cc#
24aa
24gg#
24aa
24ee
24cc#
24b
24ee
24dd#
24ee
24dd
24b
=60
*>C2
24a
24e
24cc#
24a
24e
24cc#
8a
8r
=61
*>D
16.d
32d
16d
32r
32bb
24ccc
24aa
24ff#
24dd
24cc
24a
=62
16.d
32d
16d
32r
32ccc#
24ddd
24bb
24gg
24ddd
24ccc
24aa
=63
24ccc
24bb
24gg
24bb
24aa
24ff#
24aa
24gg
24ee
24gg
24ff#
24dd#
=64
24ff#
24ee
24b
24ee
24dd
24b
24dd
24cc#
24b
24a
24b
24g
=65
16.f#
32f#
16f#
32r
32gg#
24aa
24ff#
24dd
24a
24g
24f#
=66
16.e
32e
16e
32r
32ccc#
24ddd
24bb
24aa
24gg
24ff#
24ee
=67
24dd
24aa
24gg#
24aa
24ff#
24dd
24cc#
24gg
24ff#
24gg
24ee
24cc#
=68
*>D1
24dd
24a
24ff#
24dd
24a
24ff#
8dd
8r
=69
*>D
16.d
32d
16d
32r
32bb
24ccc
24aa
24ff#
24dd
24cc
24a
=70
16.d
32d
16d
32r
32ccc#
24ddd
24bb
24gg
24ddd
24ccc
24aa
=71
24ccc
24bb
24gg
24bb
24aa
24ff#
24aa
24gg
24ee
24gg
24ff#
24dd#
=72
24ff#
24ee
24b
24ee
24dd
24b
24dd
24cc#
24b
24a
24b
24g
=73
16.f#
32f#
16f#
32r
32gg#
24aa
24ff#
24dd
24a
24g
24f#
=74
16.e
32e
16e
32r
32ccc#
24ddd
24bb
24aa
24gg
24ff#
24ee
=75
24dd
24aa
24gg#
24aa
24ff#
24dd
24cc#
24gg
24ff#
24gg
24ee
24cc#
=76
*>D2
24dd
24a
24ff#
24dd
24a
24ff#
8dd
8A
=77
*k[b-]
*d:
*>E
4d
4a
=78
8g
16.f
32e
8d
8dd
=79
8dd
8dd
8dd
8dd
=80
[4dd
8dd]
8r
=81
4f
4cc
=82
8b-
16.a
32g#
8a
8b
=83
4cc
4g#
=84
8a
8B-
8A
8c#
=85
32d
32f
32a
32cc#
32dd
32ee
32ff
32gg
32gg#
32aa
32gg#
32aa
32gg#
32aa
32bb-
32aa
=86
32gg
32ff
32ee
32dd
32cc#
32dd
32cc#
32dd
32cc#
32dd
32ee
32dd
8a
=87
32g
32dd
32ee
32dd
32a
32dd
32ee
32dd
32b-
32dd
32ee
32dd
32b
32dd
32ee
32dd
=88
32a
32cc#
32dd
32cc#
32dd
32ff
32ee
32dd
32cc#
32cc
32dd
32cc
32b
32cc
32dd
32ee
=89
32ff
32f
32a
32cc
32ff
32gg
32aa
32bb-
32bb
32ccc
32bb
32ccc
32bb
32ccc
32ddd
32ccc
=90
32bb-
32aa
32gg#
32aa
32gg#
32aa
32bb-
32aa
32a
32aa
32gg#
32aa
32b
32bb
32aa
32bb
=91
32cc
32ccc
32bb
32ccc
32eee
32ccc
32bb
32aa
32gg#
32ff
32ee
32dd
32cc
32b
32a
32g#
=92
16a
16A
16r
16B-
16r
16A
16r
16G#
=93
4ee
8..gg
32ff
=94
8ff
4ee
16.ff
32dd
=95
[4cc#
16cc#]
16ee
16.gg
32ff
=96
8ff
4ee
16.ff
32dd
=97
8cc#
4ee
16.ff
32dd
=98
16.cc#
32ee
16.ff
32dd
16.cc#
32ee
16.ff
32dd
=99
4cc#
4ee
=100
4.gg
8cc#
=101
4dd
4aa
=102
8gg
16.ff
32ee
8dd
8gg
=103
8ff
16.ee
32dd
8cc
8aa
=104
8gg
16.ff
32ee
8dd
16.ddd
32ccc
=105
16ccc
16bb-
16aa
16gg#
16gg#
8aa
16c#
=106
4e
8d
8r
=107
4ee
8..gg
32ff
=108
8ff
[8ee
32ee]
32ee
32ff
32ee
32gg
32ff
32ee
32dd
=109
32cc#
32dd#
32ee
32dd#
32ee
32ff#
32gg
32ff#
32gg
32aa
32bb-
32aa
32bb-
32aa
32gg
32ff
=110
32ff
32ee
32dd#
32ee
32dd#
32ee
32dd#
32ee
32dd#
32ee
32ff
32ee
32gg
32ff
32ee
32dd
=111
32cc#
32ee
32dd#
32ee
32dd#
32ee
32dd#
32ee
32dd#
32ee
32ff
32ee
32gg
32ff
32ee
32dd
=112
32cc#
32ee
32ff
32ee
32gg
32ff
32ee
32dd
32cc#
32ee
32ff
32ee
32gg
32ff
32ee
32dd
=113
32cc#
32dd#
32ee
32dd#
32ee
32ff#
32gg
32ff#
32gg
32aa
32bb-
32aa
32ccc
32bb-
32aa
32gg
=114
32ff
32ee
32dd
32cc#
32b-
32a
32g
32f
32e
32d
32c#
32B-
8r
=115
32D
32d
32f
32a
32dd
32ee
32ff
32gg
32gg#
32aa
32gg#
32aa
32gg#
32aa
32bb-
32aa
=116
32gg
32ff
32aa
32gg
32ff
32gg
32ee
32ff
32dd
32ee
32ff
32ff#
32gg
32ff#
32aa
32gg
=117
32ff
32ee
32gg
32ff
32ee
32ff
32dd
32ee
32cc
32ee
32ff
32gg
32aa
32gg#
32bb-
32aa
=118
32gg
32ff
32aa
32gg
32ff
32gg
32ee
32ff
32dd
32ddd
32ccc#
32ddd
32ccc#
32ddd
32eee
32ddd
=119
32ccc
32bb-
32aa
32gg
32ff
32ee
32ff
32gg
32gg#
32aa
32dd
32dd
32gg#
32aa
32cc#
32cc#
=120
32gg
32aa#
32cc#
32aa#
32gg
32aa#
32cc#
32aa#
32dd
32b-
32a
32g#
32a
32g
32f
32e
=121
4d
4a
=122
8g
16.f
32e
8d
8d
=123
8e
8e
8e
8e
=124
2e
=125
8e
8e
8e
8e
=126
2e
=127
16.e
32e
8e
24cc#
24bb-
24aa
24bb-
24gg
24ee
=128
16.f
32f
8f
24ff
24ddd
24ccc#
24ddd
24aa
24ff
=129
16.g
32g
8g
24gg
24eee
24ddd#
24eee
24ccc#
24bb-
=130
24gg
24eee
24ddd#
24eee
24ccc#
24bb-
24gg
24ccc#
24bb#
24ccc#
24bb-
24gg
=131
24ee
24cc#
24b-
24g
24e
24c#
16B-
16G
16E
16C#
=132
2BB-
=133
4AA
4G
=134
8r
16F
16d
8r
16d
16b-
=135
8r
16f
16a
8r
16gg
16ccc#
=136
4.ccc#
16.eee
32ddd
=137
2ddd
==
*-
